src/assets/icons/lamp-charge.svg

<svg width="24" height="24" viewBox="0 0 24 24" fill="none" xmlns="http://www.w3.org/2000/svg">
<path d="M15.2602 21.9999C15.2002 21.9999 15.1302 21.9899 15.0702 21.9699C13.0602 21.3999 10.9502 21.3999 8.94015 21.9699C8.57015 22.0699 8.18015 21.8599 8.08015 21.4899C7.97015 21.1199 8.19015 20.7299 8.56015 20.6299C10.8202 19.9899 13.2002 19.9899 15.4602 20.6299C15.8302 20.7399 16.0502 21.1199 15.9402 21.4899C15.8402 21.7999 15.5602 21.9999 15.2602 21.9999Z" fill="#47BAB8"/>
<path d="M19.2097 6.36001C18.1697 4.26001 16.1597 2.71001 13.8297 2.20001C11.3897 1.66001 8.88973 2.24001 6.97973 3.78001C5.05973 5.31001 3.96973 7.60001 3.96973 10.05C3.96973 12.64 5.51973 15.35 7.85973 16.92V17.75C7.84973 18.03 7.83973 18.46 8.17973 18.81C8.52973 19.17 9.04973 19.21 9.45973 19.21H14.5897C15.1297 19.21 15.5397 19.06 15.8197 18.78C16.1997 18.39 16.1897 17.89 16.1797 17.62V16.92C19.2797 14.83 21.2297 10.42 19.2097 6.36001ZM13.7197 11.62L12.6497 13.48C12.5097 13.72 12.2597 13.86 11.9997 13.86C11.8697 13.86 11.7397 13.83 11.6297 13.76C11.2697 13.55 11.1497 13.09 11.3497 12.74L12.1997 11.26H11.3597C10.8597 11.26 10.4497 11.04 10.2297 10.67C10.0097 10.29 10.0297 9.83001 10.2797 9.39001L11.3497 7.53001C11.5597 7.17001 12.0197 7.05001 12.3697 7.25001C12.7297 7.46001 12.8497 7.92001 12.6497 8.27001L11.7997 9.75001H12.6397C13.1397 9.75001 13.5497 9.97001 13.7697 10.34C13.9897 10.72 13.9697 11.19 13.7197 11.62Z" fill="#47BAB8"/>
</svg>

<svg xmlns="http://www.w3.org/2000/svg" width="24" height="24" fill="none"><path fill="#47BAB8" d="M15.26 22c-.06 0-.13-.01-.19-.03-2.01-.57-4.12-.57-6.13 0-.37.1-.76-.11-.86-.48a.69.69 0 0 1 .48-.86c2.26-.64 4.64-.64 6.9 0 .37.11.59.49.48.86-.1.31-.38.51-.68.51ZM19.21 6.36c-1.04-2.1-3.05-3.65-5.38-4.16-2.44-.54-4.94.04-6.85 1.58a7.973 7.973 0 0 0-3.01 6.27c0 2.59 1.55 5.3 3.89 6.87v.83c-.01.28-.02.71.32 1.06.35.36.87.4 1.28.4h5.13c.54 0 .95-.15 1.23-.43.38-.39.37-.89.36-1.16v-.7c3.1-2.09 5.05-6.5 3.03-10.56Zm-5.49 5.26-1.07 1.86c-.14.24-.39.38-.65.38a.754.754 0 0 1-.65-1.12l.85-1.48h-.84c-.5 0-.91-.22-1.13-.59-.22-.38-.2-.84.05-1.28l1.07-1.86c.21-.36.67-.48 1.02-.28.36.21.48.67.28 1.02l-.85 1.48h.84c.5 0 .91.22 1.13.59.22.38.2.85-.05 1.28Z"/></svg>
